public/svg/different/ask.svg

<svg width="104" height="104" viewBox="0 0 104 104" fill="none" xmlns="http://www.w3.org/2000/svg">
<path fill-rule="evenodd" clip-rule="evenodd" d="M52 98.5833C77.7273 98.5833 98.5833 77.7273 98.5833 52C98.5833 26.2727 77.7273 5.41667 52 5.41667C26.2727 5.41667 5.41667 26.2727 5.41667 52C5.41667 77.7273 26.2727 98.5833 52 98.5833ZM52 104C80.7188 104 104 80.7188 104 52C104 23.2812 80.7188 0 52 0C23.2812 0 0 23.2812 0 52C0 80.7188 23.2812 104 52 104Z" fill="#434343"/>
<path fill-rule="evenodd" clip-rule="evenodd" d="M21.7404 82.2576C13.7154 74.2326 9.20703 63.3484 9.20703 51.9993C9.20703 40.6503 13.7154 29.7661 21.7404 21.7411C29.7654 13.7161 40.6496 9.20768 51.9987 9.20768C53.4945 9.20768 54.707 10.4202 54.707 11.916C54.707 13.4118 53.4945 14.6243 51.9987 14.6243C42.0862 14.6243 32.5798 18.5621 25.5706 25.5712C18.5614 32.5804 14.6237 42.0869 14.6237 51.9993C14.6237 61.9118 18.5614 71.4183 25.5706 78.4275C32.5798 85.4366 42.0862 89.3743 51.9987 89.3743C53.4945 89.3743 54.707 90.5869 54.707 92.0827C54.707 93.5785 53.4945 94.791 51.9987 94.791C40.6496 94.791 29.7654 90.2826 21.7404 82.2576Z" fill="#F55E21"/>
<path fill-rule="evenodd" clip-rule="evenodd" d="M46.6646 33.3113C43.2556 33.3342 40.5106 36.1164 40.5335 39.5254L40.558 43.1792C40.5681 44.6749 39.3637 45.8956 37.8679 45.9057C36.3722 45.9157 35.1515 44.7113 35.1415 43.2156L35.1169 39.5618C35.0739 33.1613 40.2277 27.9378 46.6282 27.8948C53.0288 27.8518 58.2523 33.0056 58.2953 39.4061L58.3339 45.1529C58.3617 49.2886 56.0365 53.0807 52.338 54.9316C50.4853 55.8587 49.3206 57.7583 49.3346 59.8299L49.3516 62.3706C49.3617 63.8664 48.1573 65.087 46.6616 65.0971C45.1658 65.1071 43.9451 63.9027 43.9351 62.407L43.918 59.8663C43.8902 55.7306 46.2153 51.9385 49.9139 50.0876C51.7666 49.1605 52.9313 47.2609 52.9173 45.1893L52.8787 39.4425C52.8558 36.0335 50.0737 33.2884 46.6646 33.3113ZM46.6723 66.6918C48.168 66.6817 49.3887 67.8861 49.3987 69.3819L49.4239 73.1212C49.4339 74.6169 48.2295 75.8376 46.7338 75.8477C45.238 75.8577 44.0174 74.6533 44.0073 73.1576L43.9822 69.4182C43.9721 67.9225 45.1765 66.7018 46.6723 66.6918Z" fill="#A4BA04"/>
<path fill-rule="evenodd" clip-rule="evenodd" d="M75.2368 46.4461C73.3351 45.5131 71.0369 46.2983 70.1038 48.2001L68.9818 50.487C68.3229 51.8298 66.7002 52.3843 65.3574 51.7255C64.0145 51.0666 63.4601 49.4439 64.1189 48.1011L65.2409 45.8142C67.4918 41.2267 73.0353 39.3325 77.6228 41.5833C82.2103 43.8341 84.1045 49.3776 81.8537 53.9651L80.0838 57.5724C78.6233 60.5491 75.5897 62.4291 72.2739 62.4122C71.0345 62.4059 69.9005 63.1087 69.3545 64.2215L68.5636 65.8334C67.9048 67.1762 66.2821 67.7307 64.9392 67.0718C63.5964 66.413 63.0419 64.7903 63.7008 63.4474L64.4916 61.8355C65.9521 58.8588 68.9857 56.9788 72.3015 56.9957C73.541 57.002 74.675 56.2992 75.2209 55.1864L76.9908 51.5792C77.9239 49.6774 77.1386 47.3792 75.2368 46.4461ZM64.6735 67.6135C66.0163 68.2724 66.5708 69.8951 65.9119 71.2379L65.1291 72.8335C64.4702 74.1763 62.8475 74.7308 61.5047 74.0719C60.1618 73.4131 59.6073 71.7904 60.2662 70.4475L61.049 68.852C61.7079 67.5091 63.3306 66.9547 64.6735 67.6135Z" fill="#A4BA04"/>
</svg>

<svg width="104" height="104" fill="none" xmlns="http://www.w3.org/2000/svg"><path fill-rule="evenodd" clip-rule="evenodd" d="M52 98.583c25.727 0 46.583-20.856 46.583-46.583C98.583 26.273 77.727 5.417 52 5.417 26.273 5.417 5.417 26.273 5.417 52c0 25.727 20.856 46.583 46.583 46.583zM52 104c28.719 0 52-23.281 52-52S80.719 0 52 0 0 23.281 0 52s23.281 52 52 52z" fill="#434343"/><path fill-rule="evenodd" clip-rule="evenodd" d="M21.74 82.258A42.792 42.792 0 0152 9.208a2.708 2.708 0 110 5.416 37.375 37.375 0 000 74.75 2.708 2.708 0 010 5.417 42.792 42.792 0 01-30.26-12.533z" fill="#F55E21"/><path fill-rule="evenodd" clip-rule="evenodd" d="M46.665 33.311a6.173 6.173 0 00-6.132 6.214l.025 3.654a2.708 2.708 0 01-5.416.037l-.025-3.654c-.043-6.4 5.11-11.624 11.511-11.667 6.4-.043 11.624 5.11 11.667 11.511l.039 5.747a10.853 10.853 0 01-5.996 9.779 5.436 5.436 0 00-3.003 4.898l.017 2.54a2.708 2.708 0 11-5.417.037l-.017-2.54a10.853 10.853 0 015.996-9.78 5.436 5.436 0 003.003-4.898l-.038-5.746a6.173 6.173 0 00-6.214-6.132zm.007 33.38a2.708 2.708 0 012.727 2.69l.025 3.74a2.708 2.708 0 01-5.417.037l-.025-3.74a2.708 2.708 0 012.69-2.726zm28.565-20.245a3.836 3.836 0 00-5.133 1.754l-1.122 2.287a2.708 2.708 0 01-4.863-2.386l1.122-2.287a9.252 9.252 0 0116.613 8.151l-1.77 3.607a8.65 8.65 0 01-7.81 4.84 3.234 3.234 0 00-2.92 1.81l-.79 1.611a2.708 2.708 0 11-4.863-2.386l.79-1.611a8.65 8.65 0 017.81-4.84 3.233 3.233 0 002.92-1.81l1.77-3.607a3.836 3.836 0 00-1.754-5.133zM64.674 67.614a2.708 2.708 0 011.238 3.624l-.783 1.596a2.708 2.708 0 01-4.863-2.386l.783-1.596a2.708 2.708 0 013.625-1.239z" fill="#A4BA04"/></svg>
